X: 942
T: The humors of Ballinlass
C: anon.
O: Ireland
B: Francis O'Neill: "The Dance Music of Ireland" (1907) no. 942
R: Hornpipe
Z: Transcribed by Frank Nordberg - http://www.musicaviva.com
F: http://www.musicaviva.com/abc/tunes/ireland/oneill-1001/oneill-1001-094
2.abc
m: Tn2 = (3n/o/n/ m/n/
m: Tn3 = n(3n/o/n/ m/n/
M: C|
L: 1/8
K: G
(GE)D2(EF) G2G2|Tc3(A BA)G(B|cB)cd e2dB|(3(cBA) (BG) EAGE|D2(EF) G2B2|c2(
cA) Bdgd|(3(BdB) GB (3(AcA) (FA)|
G2(GF) G2::(ef)|gfe(d e2)e(f|ge)de Td3B|cBcd e2(dB)|[1(3(cBA) (BG) E2 (ef
)|gfe(d ed)d(f|ge)de d2c2|
(3(BdB) GB (3(AcA) FA|G2(GF)G2:|[2(3cBA (BG) EAG(E|D2)EF TG2B2|Tc2cA Bdgd
|(3(BdB) GB (3(AcA) FA|G2(GF)G2|]
W:
W:
W: From Musica Viva - http://www.musicaviva.com
W: the Internet center for free sheet music downloads.


